actions/scalable/irc-unvoice.svg

<svg height="22" width="22" xmlns="http://www.w3.org/2000/svg" xmlns:sodipodi="http://sodipodi.sourceforge.net/DTD/sodipodi-0.dtd" xmlns:inkscape="http://www.inkscape.org/namespaces/inkscape">
 <path d="M 19,3 18,3.375 V 18.688 L 19,19 V 3 z M 17,3.75 5,8.25 v 6.375 l 1,0.313 V 15 v 1 1 1 h 5 1 v -1 -0.188 l 5,1.563 V 17 5 3.75 z m -1,1.6133 v 11.364 L 6,14.0003 v -5 L 16,5.3636 z M 4,8.625 3,9 v 5 l 1,0.312 V 8.625 z m 3,6.625 4,1.25 V 17 H 7 v -1 -0.75 z" fill="#ff0000" fill-rule="evenodd" inkscape:connector-curvature="0"/>
</svg>

<?xml version="1.0" encoding="UTF-8" standalone="no"?>
<!-- Created with Inkscape (http://www.inkscape.org/) -->

<svg
   xmlns:dc="http://purl.org/dc/elements/1.1/"
   xmlns:cc="http://creativecommons.org/ns#"
   xmlns:rdf="http://www.w3.org/1999/02/22-rdf-syntax-ns#"
   xmlns:svg="http://www.w3.org/2000/svg"
   xmlns="http://www.w3.org/2000/svg"
   xmlns:sodipodi="http://sodipodi.sourceforge.net/DTD/sodipodi-0.dtd"
   xmlns:inkscape="http://www.inkscape.org/namespaces/inkscape"
   width="22"
   height="22"
   id="svg3760"
   version="1.1"
   inkscape:version="0.48+devel r"
   sodipodi:docname="irc-unvoice.svg">
  <defs
     id="defs3762" />
  <sodipodi:namedview
     id="base"
     pagecolor="#ffffff"
     bordercolor="#666666"
     borderopacity="1.0"
     inkscape:pageopacity="0.0"
     inkscape:pageshadow="2"
     inkscape:zoom="23.979306"
     inkscape:cx="11.199147"
     inkscape:cy="12.016462"
     inkscape:document-units="px"
     inkscape:current-layer="layer1"
     showgrid="true"
     fit-margin-top="0"
     fit-margin-left="0"
     fit-margin-right="0"
     fit-margin-bottom="0"
     inkscape:window-width="1366"
     inkscape:window-height="668"
     inkscape:window-x="-2"
     inkscape:window-y="23"
     inkscape:window-maximized="1"
     inkscape:showpageshadow="false">
    <sodipodi:guide
       position="4.1796875e-06,21.999997"
       orientation="22,0"
       id="guide4116" />
    <sodipodi:guide
       position="4.1796875e-06,-2.6953124e-06"
       orientation="0,22"
       id="guide4118" />
    <sodipodi:guide
       position="22.000004,-2.6953124e-06"
       orientation="-22,0"
       id="guide4120" />
    <sodipodi:guide
       position="22.000004,21.999997"
       orientation="0,-22"
       id="guide4122" />
    <sodipodi:guide
       position="2.0000042,19.999997"
       orientation="18,0"
       id="guide4124" />
    <sodipodi:guide
       position="20.000004,1.9999973"
       orientation="-18,0"
       id="guide4128" />
    <sodipodi:guide
       position="20.000004,19.999997"
       orientation="0,-18"
       id="guide4130" />
    <sodipodi:guide
       position="3.0000042,18.999997"
       orientation="16,0"
       id="guide4132" />
    <sodipodi:guide
       position="3.0000042,2.9999973"
       orientation="0,16"
       id="guide4134" />
    <sodipodi:guide
       position="19.000004,2.9999973"
       orientation="-16,0"
       id="guide4136" />
    <sodipodi:guide
       position="19.000004,18.999997"
       orientation="0,-16"
       id="guide4138" />
    <inkscape:grid
       type="xygrid"
       id="grid4140" />
  </sodipodi:namedview>
  <metadata
     id="metadata3765">
    <rdf:RDF>
      <cc:Work
         rdf:about="">
        <dc:format>image/svg+xml</dc:format>
        <dc:type
           rdf:resource="http://purl.org/dc/dcmitype/StillImage" />
        <dc:title></dc:title>
      </cc:Work>
    </rdf:RDF>
  </metadata>
  <g
     inkscape:label="Capa 1"
     inkscape:groupmode="layer"
     id="layer1"
     transform="translate(-553.72253,-583.11926)">
    <path
       style="fill:#da4453;fill-rule:evenodd;stroke:none;stroke-width:1px;stroke-linecap:butt;stroke-linejoin:miter;stroke-opacity:1;fill-opacity:1"
       d="M 19 3 L 18 3.375 L 18 18.6875 L 19 19 L 19 3 z M 17 3.75 L 5 8.25 L 5 14.625 L 6 14.9375 L 6 15 L 6 16 L 6 17 L 6 18 L 11 18 L 12 18 L 12 17 L 12 16.8125 L 17 18.375 L 17 17 L 17 5 L 17 3.75 z M 16 5.3632812 L 16 16.726562 L 6 14 L 6 9 L 16 5.3632812 z M 4 8.625 L 3 9 L 3 14 L 4 14.3125 L 4 8.625 z M 7 15.25 L 11 16.5 L 11 17 L 7 17 L 7 16 L 7 15.25 z "
       transform="translate(553.72253,583.11926)"
       id="path3318" />
  </g>
</svg>
